X: 37661
T: Snowflake, The
R: hornpipe
M: 4/4
K: Amajor
A2 AG Acec|~B3c B2 dc|Bcde fgaf|eagf e/f/e d/c/B|
A/B/A GB Acec|~B3c defg|agae fdBG|1 A/B/A GB A2 E2:|2 A/B/A GB A2 cd||
efed ceag|fedc defg|agfe dcBA|GEBG Ecd^d|
efed ceag|fedc defg|agae fdBG|1 A/B/A GB A2 cd:|2 A/B/A GB AdcB||

